X:1
T:Theme From "Zorba The Greek"
T:Theme From "Zorba The Greek"
T:Mikis Theodorakis
C:Mikis Theodorakis
Z:All Rights Reserved
L:1/16
M:2/4
K:G
V:1 treble 
%%MIDI program 40
%%MIDI control 7 100
%%MIDI control 10 64
V:1
"G""^Slowly" ^cddd dddd | dddd dddd | ^cddd dddd |1 dddd dd (3d/e/d/ ^c/d/ :|2 dddd dddd || %5
"Am""^A little faster" Bccc cccc | cccc cc (3c/d/c/ B/c/ | Bccc cccc | cccc cccc |"G" ^cddd dddd | %10
 dddd dd (3d/e/d/ c/B/ |"Am" cccc cccc | cccc"D7" cc (3c/d/c/ B/A/ |"G" Gggg gggg | %14
 z ggg gg z ^A ||"G""^moderately" B8- | B6 z ^c | d8- | d6 z e |"G7" =f8- | f6 z ^d |"C" e8- | %22
 e6 z ^c |"G" d8- | d6 z B |"Am" c8- | c6 e/d/c/B/ | c8- | c6 z ^A |"G" B8- | B4 (3dcB A^G | %31
"Am" c8- | c4"D7" (3cBA GF |"G" G,2G2 D2G2 | G,2G2 D2G2 | G,2G2 D2G2 | G,2G2 D2G2 |: %37
"G""^brightly" z2 B2 B2B2 | BcBA BAB2 | z2 B2 B2B2 | BcBA BAB2 | z2 B2 B2B2 | BcBA Bcd2 | %43
 z2 d2"D7" e2c2 |"G" BcBA BAB2 | z2 e2"D7" c2d2 |"G" BcBA BAB2 :|"G6" G2 g4 g2 |"D7" f4 e4 | %49
 d2 e4 c2 |"G" BcBA BAB2 |"G6" G2 g4 g2 |"D7" f4 e4 | d2 e4 c2 |"G" BcBA BAB2 | G4 b4 | %56
"D7" ac'ba gbag | fagf egfe |"G" dedc d2B2 | G4 b4 |"D7" ac'ba gbag | fagf egfe |"G" dedc d2B2 | %63
"G6" G2 g4 g2 |"D7" f4 a4 | f2 g4 e2 |"G" dedc d2B2 |"G6" G2 g4 g2 |"D7" f4 a4 | f2 g4 e2 | %70
"G" dedc d2B2 |:"G" d2"D7" e4 c2 |"G" BcBA BAB2 | z2 e2"D7" c2d2 |"G" BcBA BAB2 | z2 B2"D7" c2e2 | %76
"G" dedc B2 z2 :|"G6" G2 g4 g2 |"D7" f4 e4 | d2 e4 c2 |"G" BcBA BAB2 |"G6" G2 g4 g2 |"D7" f4 e4 | %83
 d2 e4 c2 |"G" BcBA BAB2 || G4 b4 |"D7" ac'ba gbag | fagf egfe |"G7" dedc d2B2 | G4 b4 | %90
"D7" ac'ba gbag | fagf egfe |"G" dedc d2g2 |] %93

